X:13060
T:Petticoat Loose
R:Jig
S:
H:
N:
D:Milltown Malbay Concertina Recital
Z:Adrian Scahill
M:6/8
L:1/8
K:C
cAA fcA|cdc cfd|cAA fef|gag gfd|\
(3cdc A fcA|cdc c2a|bag fdc|1 dgg gfd:|2 dgg gab||\
(3c'd'c' d' c'ag|fde f2a|c'd'c' c'ag|ad'd' d'ab|\
(3c'd'c' d' c'ag|fde f2a|_bag fdc|1 dgg ga=b:|2 dgg gfd||\
